optimized/20/solid/globe-europe-africa.svg

<svg xmlns="http://www.w3.org/2000/svg" viewBox="0 0 20 20">
  <path fill-rule="evenodd" d="M18 10C18 14.4183 14.4183 18 10 18C5.58172 18 2 14.4183 2 10C2 5.58172 5.58172 2 10 2C14.4183 2 18 5.58172 18 10ZM16.4969 10.2041C16.389 13.6995 13.5216 16.5 10 16.5C6.41015 16.5 3.5 13.5899 3.5 10C3.5 7.12656 5.36451 4.68861 7.94969 3.82998L6.92671 5.62019C6.60171 6.18894 6.69759 6.90485 7.16078 7.36805C7.6029 7.81017 8.27833 7.91977 8.83757 7.64015L9.0123 7.55279C9.08173 7.51807 9.15829 7.5 9.23591 7.5H9.38181C9.5712 7.5 9.74433 7.607 9.82902 7.77639C9.8994 7.91716 9.8994 8.08284 9.82902 8.22361L9.80123 8.27919C9.73357 8.41452 9.59525 8.5 9.44395 8.5H8.9418C8.18614 8.5 7.48048 8.87766 7.06131 9.50641L7.01751 9.57212C6.65828 10.111 6.56795 10.7855 6.77274 11.3998C6.98201 12.0276 7.47787 12.5197 8.10338 12.7282C8.33997 12.8071 8.49984 13.0292 8.49984 13.2749V14.3246C8.49984 14.9738 9.02608 15.5 9.67523 15.5C10.0323 15.5 10.37 15.3377 10.5931 15.0589L12.2044 13.0446C12.3957 12.8056 12.4998 12.5086 12.4998 12.2025C12.4998 11.8866 12.6279 11.5791 12.8531 11.3539C13.3088 10.8982 13.3864 10.1784 13.0257 9.63738L12.5617 8.94145C12.5214 8.88091 12.4998 8.80979 12.4998 8.73703C12.4998 8.43336 12.8465 8.26002 13.0895 8.44222L13.4322 8.69925C13.748 8.93609 14.1704 8.97373 14.523 8.79746C14.7488 8.68456 15.0216 8.72887 15.1996 8.90689L16.4969 10.2041Z" clip-rule="evenodd"/>
</svg>

<svg xmlns="http://www.w3.org/2000/svg" viewBox="0 0 20 20" fill="currentColor" aria-hidden="true">
  <path fill-rule="evenodd" d="M18 10a8 8 0 11-16 0 8 8 0 0116 0zm-1.503.204A6.5 6.5 0 117.95 3.83L6.927 5.62a1.453 1.453 0 001.91 2.02l.175-.087a.5.5 0 01.224-.053h.146a.5.5 0 01.447.724l-.028.055a.4.4 0 01-.357.221h-.502a2.26 2.26 0 00-1.88 1.006l-.044.066a2.099 2.099 0 001.085 3.156.58.58 0 01.397.547v1.05a1.175 1.175 0 002.093.734l1.611-2.014c.192-.24.296-.536.296-.842 0-.316.128-.624.353-.85a1.363 1.363 0 00.173-1.716l-.464-.696a.369.369 0 01.527-.499l.343.257c.316.237.738.275 1.091.098a.586.586 0 01.677.11l1.297 1.297z" clip-rule="evenodd"/>
</svg>
